kwork_juristConsalt/img/svg/documents.svg

<svg width="100" height="100" viewBox="0 0 100 100" fill="none" xmlns="http://www.w3.org/2000/svg">
<path d="M76.3672 8.78906V100H8.78906C3.92559 100 0 95.8787 0 91.0156V29.4922L2.10938 28.7305L27.6563 3.39863L29.2969 0H67.5781C72.4416 0 76.3672 3.92559 76.3672 8.78906Z" fill="#F2F2F2"/>
<path d="M76.3672 8.78906V100H38.0859V0H67.5781C72.4416 0 76.3672 3.92559 76.3672 8.78906Z" fill="#C4F3FF"/>
<path d="M0 29.4922H26.3672C27.9865 29.4922 29.2969 28.1818 29.2969 26.5625V0L0 29.4922Z" fill="#C5C9F7"/>
<path d="M58.8279 79.2969C58.8279 80.9373 57.4805 82.2266 55.8982 82.2266H14.6484C13.0076 82.2266 11.7188 80.9373 11.7188 79.2969C11.7188 77.6561 13.0076 76.3672 14.6484 76.3672H55.8982C57.4805 76.3672 58.8279 77.6561 58.8279 79.2969Z" fill="#0A789B"/>
<path d="M58.8279 79.2969C58.8279 80.9373 57.4805 82.2266 55.8982 82.2266H38.0859V76.3672H55.8982C57.4805 76.3672 58.8279 77.6561 58.8279 79.2969Z" fill="#08475E"/>
<path d="M59.3555 67.5781C59.3555 69.2186 58.008 70.5078 56.4258 70.5078H14.6484C13.0076 70.5078 11.7188 69.2186 11.7188 67.5781C11.7188 65.9373 13.0076 64.6484 14.6484 64.6484H56.4258C58.008 64.6484 59.3555 65.9373 59.3555 67.5781Z" fill="#0A789B"/>
<path d="M59.3555 67.5781C59.3555 69.2186 58.008 70.5078 56.4258 70.5078H38.0859V64.6484H56.4258C58.008 64.6484 59.3555 65.9373 59.3555 67.5781Z" fill="#08475E"/>
<path d="M53.8477 55.8594C53.8477 57.4998 52.5002 58.7891 50.918 58.7891H14.6484C13.0076 58.7891 11.7188 57.4998 11.7188 55.8594C11.7188 54.2186 13.0076 52.9297 14.6484 52.9297H50.918C52.5002 52.9297 53.8477 54.2186 53.8477 55.8594Z" fill="#0A789B"/>
<path d="M53.8477 55.8594C53.8477 57.4998 52.5002 58.7891 50.918 58.7891H38.0859V52.9297H50.918C52.5002 52.9297 53.8477 54.2186 53.8477 55.8594Z" fill="#08475E"/>
<path d="M64.6484 44.1406C64.6484 45.7811 63.1643 47.0703 61.5234 47.0703H14.6484C13.0076 47.0703 11.7188 45.7811 11.7188 44.1406C11.7188 42.4998 13.0076 41.2109 14.6484 41.2109H61.5234C63.1643 41.2109 64.6484 42.4998 64.6484 44.1406Z" fill="#0A789B"/>
<path d="M64.6484 44.1406C64.6484 45.7811 63.1643 47.0703 61.5234 47.0703H38.0859V41.2109H61.5234C63.1643 41.2109 64.6484 42.4998 64.6484 44.1406Z" fill="#08475E"/>
<path d="M64.6484 32.4219C64.6484 34.0623 63.1643 35.3516 61.5234 35.3516H38.0859C36.4451 35.3516 35.1562 34.0623 35.1562 32.4219C35.1562 30.7811 36.4451 29.4922 38.0859 29.4922H61.5234C63.1643 29.4922 64.6484 30.7811 64.6484 32.4219Z" fill="#0A789B"/>
<path d="M64.6484 32.4219C64.6484 34.0623 63.1643 35.3516 61.5234 35.3516H38.0859V29.4922H61.5234C63.1643 29.4922 64.6484 30.7811 64.6484 32.4219Z" fill="#08475E"/>
<path d="M64.6484 20.7031C64.6484 22.3439 63.1643 23.6328 61.5234 23.6328H38.0859C36.4451 23.6328 35.1562 22.3439 35.1562 20.7031C35.1562 19.0623 36.4451 17.7734 38.0859 17.7734H61.5234C63.1643 17.7734 64.6484 19.0623 64.6484 20.7031Z" fill="#0A789B"/>
<path d="M64.6484 20.7031C64.6484 22.3439 63.1643 23.6328 61.5234 23.6328H38.0859V17.7734H61.5234C63.1643 17.7734 64.6484 19.0623 64.6484 20.7031Z" fill="#08475E"/>
<path d="M76.3672 52.9297C63.4178 52.9297 52.7344 63.4178 52.7344 76.3672C52.7344 89.3162 63.4178 100 76.3672 100C89.3166 100 100 89.3162 100 76.3672C100 63.4178 89.3166 52.9297 76.3672 52.9297Z" fill="#AAE992"/>
<path d="M100 76.3672C100 89.3162 89.3166 100 76.3672 100V52.9297C89.3166 52.9297 100 63.4178 100 76.3672Z" fill="#19D082"/>
<path d="M87.2068 75.4881L76.3672 86.3281L75.4881 87.2069C74.9609 87.793 74.1992 88.086 73.4375 88.086C72.6758 88.086 71.9141 87.793 71.3869 87.2069L65.5275 81.3475C64.3557 80.2342 64.3557 78.3592 65.5275 77.2459C66.6408 76.0742 68.5154 76.0742 69.6289 77.2459L73.4377 80.9959L76.3674 78.0662L83.1059 71.3865C84.2192 70.2148 86.0938 70.2148 87.2072 71.3865C88.3789 72.4998 88.3789 74.3748 87.2068 75.4881Z" fill="#0A789B"/>
<path d="M87.2068 75.4881L76.3672 86.3281V78.0662L83.1057 71.3865C84.2189 70.2148 86.0936 70.2148 87.207 71.3865C88.3789 72.4998 88.3789 74.3748 87.2068 75.4881Z" fill="#08475E"/>
</svg>

<svg width="100" height="100" fill="none" xmlns="http://www.w3.org/2000/svg"><path d="M76.367 8.79V100H8.79C3.926 100 0 95.879 0 91.016V29.492l2.11-.762L27.655 3.4 29.296 0h38.282a8.777 8.777 0 018.79 8.79z" fill="#F2F2F2"/><path d="M76.367 8.79V100H38.086V0h29.492a8.777 8.777 0 018.79 8.79z" fill="#C4F3FF"/><path d="M0 29.492h26.367c1.62 0 2.93-1.31 2.93-2.93V0L0 29.492z" fill="#C5C9F7"/><path d="M58.828 79.297c0 1.64-1.348 2.93-2.93 2.93h-41.25c-1.64 0-2.93-1.29-2.93-2.93a2.9 2.9 0 012.93-2.93h41.25a2.938 2.938 0 012.93 2.93z" fill="#0A789B"/><path d="M58.828 79.297c0 1.64-1.348 2.93-2.93 2.93H38.086v-5.86h17.812a2.938 2.938 0 012.93 2.93z" fill="#08475E"/><path d="M59.355 67.578c0 1.64-1.347 2.93-2.93 2.93H14.649c-1.64 0-2.93-1.29-2.93-2.93a2.9 2.9 0 012.93-2.93h41.778a2.938 2.938 0 012.93 2.93z" fill="#0A789B"/><path d="M59.355 67.578c0 1.64-1.347 2.93-2.93 2.93h-18.34v-5.86h18.34a2.938 2.938 0 012.93 2.93z" fill="#08475E"/><path d="M53.848 55.86c0 1.64-1.348 2.93-2.93 2.93h-36.27c-1.64 0-2.93-1.29-2.93-2.93a2.9 2.9 0 012.93-2.93h36.27a2.938 2.938 0 012.93 2.93z" fill="#0A789B"/><path d="M53.848 55.86c0 1.64-1.348 2.93-2.93 2.93H38.086v-5.86h12.832a2.938 2.938 0 012.93 2.93z" fill="#08475E"/><path d="M64.648 44.14c0 1.641-1.484 2.93-3.125 2.93H14.648a2.902 2.902 0 01-2.93-2.93 2.9 2.9 0 012.93-2.93h46.875c1.641 0 3.125 1.29 3.125 2.93z" fill="#0A789B"/><path d="M64.648 44.14c0 1.641-1.484 2.93-3.125 2.93H38.086v-5.86h23.437c1.641 0 3.125 1.29 3.125 2.93z" fill="#08475E"/><path d="M64.648 32.422c0 1.64-1.484 2.93-3.125 2.93H38.086c-1.64 0-2.93-1.29-2.93-2.93 0-1.64 1.29-2.93 2.93-2.93h23.437c1.641 0 3.125 1.29 3.125 2.93z" fill="#0A789B"/><path d="M64.648 32.422c0 1.64-1.484 2.93-3.125 2.93H38.086v-5.86h23.437c1.641 0 3.125 1.29 3.125 2.93z" fill="#08475E"/><path d="M64.648 20.703c0 1.64-1.484 2.93-3.125 2.93H38.086a2.901 2.901 0 01-2.93-2.93c0-1.64 1.29-2.93 2.93-2.93h23.437c1.641 0 3.125 1.29 3.125 2.93z" fill="#0A789B"/><path d="M64.648 20.703c0 1.64-1.484 2.93-3.125 2.93H38.086v-5.86h23.437c1.641 0 3.125 1.29 3.125 2.93z" fill="#08475E"/><path d="M76.367 52.93c-12.95 0-23.633 10.488-23.633 23.437 0 12.95 10.684 23.633 23.633 23.633C89.317 100 100 89.316 100 76.367c0-12.95-10.683-23.437-23.633-23.437z" fill="#AAE992"/><path d="M100 76.367C100 89.317 89.317 100 76.367 100V52.93C89.317 52.93 100 63.418 100 76.367z" fill="#19D082"/><path d="M87.207 75.488l-10.84 10.84-.879.879c-.527.586-1.289.879-2.05.879-.762 0-1.524-.293-2.051-.88l-5.86-5.859a2.832 2.832 0 010-4.101 2.832 2.832 0 014.102 0l3.809 3.75 2.93-2.93 6.738-6.68a2.832 2.832 0 014.101 0 2.832 2.832 0 010 4.102z" fill="#0A789B"/><path d="M87.207 75.488l-10.84 10.84v-8.262l6.739-6.68a2.832 2.832 0 014.101 0 2.832 2.832 0 010 4.102z" fill="#08475E"/></svg>
